tools/download-figma-icons/icons/solid/calendar.svg

<svg width="24" height="24" viewBox="0 0 24 24" fill="none" xmlns="http://www.w3.org/2000/svg">
<path fill-rule="evenodd" clip-rule="evenodd" d="M16.5 13.5V12C16.5 11.5875 16.8375 11.25 17.25 11.25H18.75C19.1625 11.25 19.5 11.5875 19.5 12V13.5C19.5 13.9125 19.1625 14.25 18.75 14.25H17.25C16.8375 14.25 16.5 13.9125 16.5 13.5ZM17.25 16.5H18.75C19.1625 16.5 19.5 16.8375 19.5 17.25V18.75C19.5 19.1625 19.1625 19.5 18.75 19.5H17.25C16.8375 19.5 16.5 19.1625 16.5 18.75V17.25C16.5 16.8375 16.8375 16.5 17.25 16.5ZM10.5 13.5V12C10.5 11.5875 10.8375 11.25 11.25 11.25H12.75C13.1625 11.25 13.5 11.5875 13.5 12V13.5C13.5 13.9125 13.1625 14.25 12.75 14.25H11.25C10.8375 14.25 10.5 13.9125 10.5 13.5ZM11.25 16.5H12.75C13.1625 16.5 13.5 16.8375 13.5 17.25V18.75C13.5 19.1625 13.1625 19.5 12.75 19.5H11.25C10.8375 19.5 10.5 19.1625 10.5 18.75V17.25C10.5 16.8375 10.8375 16.5 11.25 16.5ZM4.5 13.5V12C4.5 11.5875 4.8375 11.25 5.25 11.25H6.75C7.1625 11.25 7.5 11.5875 7.5 12V13.5C7.5 13.9125 7.1625 14.25 6.75 14.25H5.25C4.8375 14.25 4.5 13.9125 4.5 13.5ZM5.25 16.5H6.75C7.1625 16.5 7.5 16.8375 7.5 17.25V18.75C7.5 19.1625 7.1625 19.5 6.75 19.5H5.25C4.8375 19.5 4.5 19.1625 4.5 18.75V17.25C4.5 16.8375 4.8375 16.5 5.25 16.5ZM3.165 3H5.25V3.75C5.25 4.16475 5.58525 4.5 6 4.5C6.41475 4.5 6.75 4.16475 6.75 3.75V3H17.25V3.75C17.25 4.16475 17.5853 4.5 18 4.5C18.4147 4.5 18.75 4.16475 18.75 3.75V3H20.835C21.7575 3 22.5 3.7425 22.5 4.665V7.5H1.5V4.665C1.5 3.7425 2.2425 3 3.165 3ZM20.835 1.5H18.75V0.75C18.75 0.33525 18.4147 0 18 0C17.5853 0 17.25 0.33525 17.25 0.75V1.5H6.75V0.75C6.75 0.33525 6.41475 0 6 0C5.58525 0 5.25 0.33525 5.25 0.75V1.5H3.165C1.4175 1.5 0 2.9175 0 4.665V20.835C0 22.5825 1.4175 24 3.165 24H20.835C22.5825 24 24 22.5825 24 20.835V4.665C24 2.9175 22.5825 1.5 20.835 1.5Z" fill="black"/>
</svg>

<svg xmlns="http://www.w3.org/2000/svg" width="24" height="24" fill="none" viewBox="0 0 24 24"><path fill="currentColor" fill-rule="evenodd" d="M16.5 13.5V12c0-.412.337-.75.75-.75h1.5c.413 0 .75.338.75.75v1.5c0 .412-.337.75-.75.75h-1.5a.75.75 0 0 1-.75-.75m.75 3h1.5c.413 0 .75.337.75.75v1.5c0 .413-.337.75-.75.75h-1.5a.75.75 0 0 1-.75-.75v-1.5c0-.413.337-.75.75-.75m-6.75-3V12c0-.412.338-.75.75-.75h1.5c.412 0 .75.338.75.75v1.5c0 .412-.338.75-.75.75h-1.5a.75.75 0 0 1-.75-.75m.75 3h1.5c.412 0 .75.337.75.75v1.5c0 .413-.338.75-.75.75h-1.5a.75.75 0 0 1-.75-.75v-1.5c0-.413.338-.75.75-.75m-6.75-3V12c0-.412.338-.75.75-.75h1.5c.412 0 .75.338.75.75v1.5c0 .412-.338.75-.75.75h-1.5a.75.75 0 0 1-.75-.75m.75 3h1.5c.412 0 .75.337.75.75v1.5c0 .413-.338.75-.75.75h-1.5a.75.75 0 0 1-.75-.75v-1.5c0-.413.338-.75.75-.75M3.165 3H5.25v.75a.75.75 0 1 0 1.5 0V3h10.5v.75a.75.75 0 1 0 1.5 0V3h2.085c.922 0 1.665.743 1.665 1.665V7.5h-21V4.665C1.5 3.743 2.243 3 3.165 3m17.67-1.5H18.75V.75a.75.75 0 1 0-1.5 0v.75H6.75V.75a.75.75 0 1 0-1.5 0v.75H3.165A3.166 3.166 0 0 0 0 4.665v16.17A3.166 3.166 0 0 0 3.165 24h17.67A3.166 3.166 0 0 0 24 20.835V4.665A3.166 3.166 0 0 0 20.835 1.5" clip-rule="evenodd"/></svg>
